singaporeairlines.svg

<?xml version="1.0" encoding="UTF-8"?>
<svg viewBox="0 0 8 8" version="1.1" xmlns="http://www.w3.org/2000/svg" xmlns:xlink="http://www.w3.org/1999/xlink">
    <title>Combined Shape</title>
    <g id="Page-1" stroke="none" stroke-width="1" fill="none" fill-rule="evenodd">
        <path d="M2.34092647,0.000173906225 L4.41844214,3.34642716 C4.41844214,3.34642716 4.72342591,3.84773803 4.72342591,4.23531317 C4.72342591,4.6229381 4.48053167,5.06222153 4.34604575,5.28442754 L3.4313428,6.71079789 C3.4313428,6.71079789 3.32802582,6.84773014 3.40042221,6.8994383 C3.47530218,6.95109679 3.54769857,6.85806184 3.60966393,6.78311978 L4.29190368,5.74438677 C4.29190368,5.74438677 4.49083853,5.31543505 5.00506402,5.31543505 L5.72853123,5.31543505 L6.23244985,6.11128622 C6.23244985,6.11128622 5.83445596,6.06995943 5.65613483,6.35421772 L4.91205391,7.47561672 C4.91205391,7.47561672 4.66915967,8.00017391 4.02057243,8.00017391 L0.516736078,8.00017391 L1.85004665,5.95364091 C1.85004665,5.95364091 2.03855046,5.71337926 1.77504249,5.31543505 L0.589008291,3.40851669 C0.589008291,3.40851669 0.297063321,3.12687858 0.599315153,2.64369786 L0.945650551,2.11904133 L2.59425175,4.79086544 C2.59425175,4.79086544 2.88619672,5.15782698 2.59425175,5.59706074 L1.35643488,7.52732488 L3.96630619,7.52732488 C3.96630619,7.52732488 4.26085892,7.58155388 4.51406002,7.20431031 L5.16264725,6.2069041 C5.16264725,6.2069041 5.30992361,5.87098733 5.63552111,5.73404266 L5.11098876,5.73404266 C5.11098876,5.73404266 4.83704975,5.74438677 4.62780804,6.06995943 L4.0516172,6.96142849 C4.0516172,6.96142849 3.8422513,7.33867205 3.37968431,7.33867205 L2.46758911,7.33867205 L3.5683123,5.63067601 C3.5683123,5.63067601 4.1678488,4.8425736 3.74663343,4.11904431 L1.92231886,1.1010214 C1.92231886,1.1010214 1.78547353,0.839996889 1.94305676,0.597102648 L2.34092647,0.000173906225 Z M1.68203238,1.04923873 L3.51665381,4.04672255 C3.51665381,4.04672255 3.98952767,4.67459659 3.47530218,5.4523673 L2.26865426,7.32576985 L1.71307714,7.32576985 L2.83453823,5.55573395 C2.83453823,5.55573395 3.00242832,5.18882208 2.78275556,4.80124681 L1.21946538,2.21217563 C1.21946538,2.21217563 1.08262005,1.97176497 1.21946538,1.74178535 L1.68203238,1.04923873 Z" id="Combined-Shape" fill="#FCB130"></path>
    </g>
</svg>

<svg viewBox="0 0 8 8" xmlns="http://www.w3.org/2000/svg"><path d="m2.34 0 2.078 3.346s.305.502.305.89c0 .387-.242.826-.377 1.048l-.915 1.427s-.103.137-.03.188c.074.052.147-.04.209-.116l.682-1.039s.199-.429.713-.429h.724l.503.796s-.398-.041-.576.243l-.744 1.122S4.67 8 4.021 8H.517L1.85 5.954s.189-.24-.075-.639L.589 3.41s-.292-.282.01-.765l.347-.525 1.648 2.672s.292.367 0 .806l-1.238 1.93h2.61s.295.055.548-.323l.649-.997s.147-.336.473-.473H5.11s-.274.01-.483.336l-.576.891s-.21.378-.672.378h-.912l1.1-1.708s.6-.788.179-1.512L1.922 1.101S1.785.84 1.943.597L2.341 0Zm-.658 1.05 1.835 2.997s.473.628-.042 1.405L2.27 7.326h-.556l1.122-1.77s.167-.367-.052-.755L1.219 2.212s-.136-.24 0-.47l.463-.693Z" fill="#FCB130" fill-rule="evenodd"/></svg>
